img/vk.svg

<svg width="26" height="26" viewBox="0 0 26 26" fill="none" xmlns="http://www.w3.org/2000/svg">
<path d="M26 13C26 20.1797 20.1797 26 13 26C5.8203 26 0 20.1797 0 13C0 5.8203 5.8203 0 13 0C20.1797 0 26 5.8203 26 13Z" fill="#D2D5D3"/>
<g clip-path="url(#clip0)">
<path d="M19.8752 16.1307C19.8376 16.0677 19.6048 15.5619 18.4847 14.5223C17.3121 13.4338 17.4697 13.6105 18.882 11.7283C19.7422 10.5819 20.0861 9.88187 19.9785 9.5826C19.8761 9.29733 19.2434 9.37259 19.2434 9.37259L17.1398 9.38484C17.1398 9.38484 16.984 9.36384 16.8676 9.43297C16.7547 9.50122 16.6821 9.65873 16.6821 9.65873C16.6821 9.65873 16.3487 10.546 15.9042 11.3004C14.967 12.8921 14.5916 12.9761 14.4384 12.8772C14.0823 12.6471 14.1715 11.9514 14.1715 11.4579C14.1715 9.91513 14.4052 9.27195 13.7156 9.10569C13.4864 9.05056 13.3184 9.01381 12.7329 9.00768C11.9821 8.99981 11.346 9.01031 10.9863 9.1862C10.7465 9.30346 10.5619 9.5651 10.6748 9.57998C10.8139 9.59835 11.1289 9.66486 11.2961 9.89237C11.5122 10.1855 11.5043 10.8453 11.5043 10.8453C11.5043 10.8453 11.6286 12.6611 11.2147 12.8868C10.9303 13.0417 10.5409 12.7258 9.70521 11.2811C9.27731 10.5417 8.95353 9.72349 8.95353 9.72349C8.95353 9.72349 8.89141 9.57123 8.78027 9.48984C8.64551 9.39096 8.4565 9.35946 8.4565 9.35946L6.4561 9.37171C6.4561 9.37171 6.15596 9.38046 6.0457 9.51085C5.94769 9.62723 6.03782 9.867 6.03782 9.867C6.03782 9.867 7.60419 13.5309 9.37707 15.3782C11.0038 17.0714 12.8502 16.9603 12.8502 16.9603H13.6868C13.6868 16.9603 13.9396 16.9323 14.0683 16.7931C14.1873 16.6654 14.1829 16.4256 14.1829 16.4256C14.1829 16.4256 14.1663 15.3029 14.6878 15.1375C15.2015 14.9748 15.8613 16.2226 16.5605 16.703C17.089 17.0662 17.4907 16.9865 17.4907 16.9865L19.3607 16.9603C19.3607 16.9603 20.339 16.8999 19.8752 16.1307Z" fill="white"/>
</g>
<defs>
<clipPath id="clip0">
<rect width="14" height="14" fill="white" transform="translate(6 6)"/>
</clipPath>
</defs>
</svg>

<svg width="26" height="26" fill="none" xmlns="http://www.w3.org/2000/svg"><path d="M26 13c0 7.18-5.82 13-13 13S0 20.18 0 13 5.82 0 13 0s13 5.82 13 13z" fill="#D2D5D3"/><g clip-path="url(#clip0)"><path d="M19.875 16.13c-.037-.062-.27-.568-1.39-1.608-1.173-1.088-1.015-.912.397-2.794.86-1.146 1.204-1.846 1.096-2.145-.102-.286-.735-.21-.735-.21l-2.103.012s-.156-.021-.272.048a.592.592 0 00-.186.226s-.333.887-.778 1.641c-.937 1.592-1.312 1.676-1.466 1.577-.356-.23-.267-.926-.267-1.42 0-1.542.234-2.185-.455-2.351-.23-.055-.398-.092-.983-.098-.75-.008-1.387.002-1.747.178-.24.117-.424.38-.311.394.139.018.454.085.621.312.216.293.208.953.208.953s.125 1.816-.29 2.042c-.284.155-.673-.161-1.509-1.606-.428-.74-.751-1.558-.751-1.558s-.063-.152-.174-.233a.872.872 0 00-.323-.13l-2 .012s-.301.008-.411.139c-.098.116-.008.356-.008.356s1.566 3.664 3.34 5.511c1.626 1.693 3.472 1.582 3.472 1.582h.837s.253-.028.381-.167c.12-.128.115-.367.115-.367s-.017-1.123.505-1.288c.513-.163 1.173 1.085 1.873 1.565.528.363.93.284.93.284l1.87-.027s.978-.06.514-.83z" fill="#fff"/></g><defs><clipPath id="clip0"><path fill="#fff" transform="translate(6 6)" d="M0 0h14v14H0z"/></clipPath></defs></svg>
